X:970
T:Auld Scots Sangs, The
C:Joe Buchanan's Scottish Tome - Page 563.2
I:563 2
Z:Carl Allison
R:Waltz
L:1/4
M:3/4
K:C
C | "C"E2 "Cdim"A | "C"G2 E | "G7"D2 E | "C"C2 G | "F"A2 "C"G | "F"A c2 | "C"G3- | "C"G2 "G7"D |
"C"E2 "Cdim"A | "C"G2 E | "E7"D2 E | "Am"C2 A | "Am"A2 E | "E7"E ^G2 | "Am"A3- | "Am"A2 "G7"B |
"C"c2 G | "B"B2 A | "C"G2 E | "Am"C2 "Cdim"A | "C"G2 E | "D7"D2 C | "G7"D3- | D "Am"C "G7"D |
"C"E2 G | "C"c2 G | "Cdim"A c2 | "C"G2 E | "D7"D2 D | "D7"d2 A | "D7"(c3 | B) "G7"A B |
"C"c2 G | "F"A c2 | "C"G2 "E"E | "Am"C2 "Abdim"D | "C"E c2 | "G7"D2 E | "C"C3- | "C"C2 |]

